site/static/img/postgres.svg

<svg width="2424" height="2500" viewBox="0 0 256 264" xmlns="http://www.w3.org/2000/svg" preserveAspectRatio="xMinYMin meet"><path d="M255.008 158.086c-1.535-4.649-5.556-7.887-10.756-8.664-2.452-.366-5.26-.21-8.583.475-5.792 1.195-10.089 1.65-13.225 1.738 11.837-19.985 21.462-42.775 27.003-64.228 8.96-34.689 4.172-50.492-1.423-57.64C233.217 10.847 211.614.683 185.552.372c-13.903-.17-26.108 2.575-32.475 4.549-5.928-1.046-12.302-1.63-18.99-1.738-12.537-.2-23.614 2.533-33.079 8.15-5.24-1.772-13.65-4.27-23.362-5.864-22.842-3.75-41.252-.828-54.718 8.685C6.622 25.672-.937 45.684.461 73.634c.444 8.874 5.408 35.874 13.224 61.48 4.492 14.718 9.282 26.94 14.237 36.33 7.027 13.315 14.546 21.156 22.987 23.972 4.731 1.576 13.327 2.68 22.368-4.85 1.146 1.388 2.675 2.767 4.704 4.048 2.577 1.625 5.728 2.953 8.875 3.74 11.341 2.835 21.964 2.126 31.027-1.848.056 1.612.099 3.152.135 4.482.06 2.157.12 4.272.199 6.25.537 13.374 1.447 23.773 4.143 31.049.148.4.347 1.01.557 1.657 1.345 4.118 3.594 11.012 9.316 16.411 5.925 5.593 13.092 7.308 19.656 7.308 3.292 0 6.433-.432 9.188-1.022 9.82-2.105 20.973-5.311 29.041-16.799 7.628-10.86 11.336-27.217 12.007-52.99.087-.729.167-1.425.244-2.088l.16-1.362 1.797.158.463.031c10.002.456 22.232-1.665 29.743-5.154 5.935-2.754 24.954-12.795 20.476-26.351"/><path d="M237.906 160.722c-29.74 6.135-31.785-3.934-31.785-3.934 31.4-46.593 44.527-105.736 33.2-120.211-30.904-39.485-84.399-20.811-85.292-20.327l-.287.052c-5.876-1.22-12.451-1.946-19.842-2.067-13.456-.22-23.664 3.528-31.41 9.402 0 0-95.43-39.314-90.991 49.444.944 18.882 27.064 142.873 58.218 105.422 11.387-13.695 22.39-25.274 22.39-25.274 5.464 3.63 12.006 5.482 18.864 4.817l.533-.452c-.166 1.7-.09 3.363.213 5.332-8.026 8.967-5.667 10.541-21.711 13.844-16.235 3.346-6.698 9.302-.471 10.86 7.549 1.887 25.013 4.561 36.813-11.958l-.47 1.885c3.144 2.519 5.352 16.383 4.982 28.952-.37 12.568-.617 21.197 1.86 27.937 2.479 6.74 4.948 21.905 26.04 17.386 17.623-3.777 26.756-13.564 28.027-29.89.901-11.606 2.942-9.89 3.07-20.267l1.637-4.912c1.887-15.733.3-20.809 11.157-18.448l2.64.232c7.99.363 18.45-1.286 24.589-4.139 13.218-6.134 21.058-16.377 8.024-13.686h.002" fill="#336791"/><path d="M108.076 81.525c-2.68-.373-5.107-.028-6.335.902-.69.523-.904 1.129-.962 1.546-.154 1.105.62 2.327 1.096 2.957 1.346 1.784 3.312 3.01 5.258 3.28.282.04.563.058.842.058 3.245 0 6.196-2.527 6.456-4.392.325-2.336-3.066-3.893-6.355-4.35M196.86 81.599c-.256-1.831-3.514-2.353-6.606-1.923-3.088.43-6.082 1.824-5.832 3.659.2 1.427 2.777 3.863 5.827 3.863.258 0 .518-.017.78-.054 2.036-.282 3.53-1.575 4.24-2.32 1.08-1.136 1.706-2.402 1.591-3.225" fill="#FFF"/><path d="M247.802 160.025c-1.134-3.429-4.784-4.532-10.848-3.28-18.005 3.716-24.453 1.142-26.57-.417 13.995-21.32 25.508-47.092 31.719-71.137 2.942-11.39 4.567-21.968 4.7-30.59.147-9.463-1.465-16.417-4.789-20.665-13.402-17.125-33.072-26.311-56.882-26.563-16.369-.184-30.199 4.005-32.88 5.183-5.646-1.404-11.801-2.266-18.502-2.376-12.288-.199-22.91 2.743-31.704 8.74-3.82-1.422-13.692-4.811-25.765-6.756-20.872-3.36-37.458-.814-49.294 7.571-14.123 10.006-20.643 27.892-19.38 53.16.425 8.501 5.269 34.653 12.913 59.698 10.062 32.964 21 51.625 32.508 55.464 1.347.449 2.9.763 4.613.763 4.198 0 9.345-1.892 14.7-8.33a529.832 529.832 0 0 1 20.261-22.926c4.524 2.428 9.494 3.784 14.577 3.92.01.133.023.266.035.398a117.66 117.66 0 0 0-2.57 3.175c-3.522 4.471-4.255 5.402-15.592 7.736-3.225.666-11.79 2.431-11.916 8.435-.136 6.56 10.125 9.315 11.294 9.607 4.074 1.02 7.999 1.523 11.742 1.523 9.103 0 17.114-2.992 23.516-8.781-.197 23.386.778 46.43 3.586 53.451 2.3 5.748 7.918 19.795 25.664 19.794 2.604 0 5.47-.303 8.623-.979 18.521-3.97 26.564-12.156 29.675-30.203 1.665-9.645 4.522-32.676 5.866-45.03 2.836.885 6.487 1.29 10.434 1.289 8.232 0 17.731-1.749 23.688-4.514 6.692-3.108 18.768-10.734 16.578-17.36zm-44.106-83.48c-.061 3.647-.563 6.958-1.095 10.414-.573 3.717-1.165 7.56-1.314 12.225-.147 4.54.42 9.26.968 13.825 1.108 9.22 2.245 18.712-2.156 28.078a36.508 36.508 0 0 1-1.95-4.009c-.547-1.326-1.735-3.456-3.38-6.404-6.399-11.476-21.384-38.35-13.713-49.316 2.285-3.264 8.084-6.62 22.64-4.813zm-17.644-61.787c21.334.471 38.21 8.452 50.158 23.72 9.164 11.711-.927 64.998-30.14 110.969a171.33 171.33 0 0 0-.886-1.117l-.37-.462c7.549-12.467 6.073-24.802 4.759-35.738-.54-4.488-1.05-8.727-.92-12.709.134-4.22.692-7.84 1.232-11.34.663-4.313 1.338-8.776 1.152-14.037.139-.552.195-1.204.122-1.978-.475-5.045-6.235-20.144-17.975-33.81-6.422-7.475-15.787-15.84-28.574-21.482 5.5-1.14 13.021-2.203 21.442-2.016zM66.674 175.778c-5.9 7.094-9.974 5.734-11.314 5.288-8.73-2.912-18.86-21.364-27.791-50.624-7.728-25.318-12.244-50.777-12.602-57.916-1.128-22.578 4.345-38.313 16.268-46.769 19.404-13.76 51.306-5.524 64.125-1.347-.184.182-.376.352-.558.537-21.036 21.244-20.537 57.54-20.485 59.759-.002.856.07 2.068.168 3.735.362 6.105 1.036 17.467-.764 30.334-1.672 11.957 2.014 23.66 10.111 32.109a36.275 36.275 0 0 0 2.617 2.468c-3.604 3.86-11.437 12.396-19.775 22.426zm22.479-29.993c-6.526-6.81-9.49-16.282-8.133-25.99 1.9-13.592 1.199-25.43.822-31.79-.053-.89-.1-1.67-.127-2.285 3.073-2.725 17.314-10.355 27.47-8.028 4.634 1.061 7.458 4.217 8.632 9.645 6.076 28.103.804 39.816-3.432 49.229-.873 1.939-1.698 3.772-2.402 5.668l-.546 1.466c-1.382 3.706-2.668 7.152-3.465 10.424-6.938-.02-13.687-2.984-18.819-8.34zm1.065 37.9c-2.026-.506-3.848-1.385-4.917-2.114.893-.42 2.482-.992 5.238-1.56 13.337-2.745 15.397-4.683 19.895-10.394 1.031-1.31 2.2-2.794 3.819-4.602l.002-.002c2.411-2.7 3.514-2.242 5.514-1.412 1.621.67 3.2 2.702 3.84 4.938.303 1.056.643 3.06-.47 4.62-9.396 13.156-23.088 12.987-32.921 10.526zm69.799 64.952c-16.316 3.496-22.093-4.829-25.9-14.346-2.457-6.144-3.665-33.85-2.808-64.447.011-.407-.047-.8-.159-1.17a15.444 15.444 0 0 0-.456-2.162c-1.274-4.452-4.379-8.176-8.104-9.72-1.48-.613-4.196-1.738-7.46-.903.696-2.868 1.903-6.107 3.212-9.614l.549-1.475c.618-1.663 1.394-3.386 2.214-5.21 4.433-9.848 10.504-23.337 3.915-53.81-2.468-11.414-10.71-16.988-23.204-15.693-7.49.775-14.343 3.797-17.761 5.53-.735.372-1.407.732-2.035 1.082.954-11.5 4.558-32.992 18.04-46.59 8.489-8.56 19.794-12.788 33.568-12.56 27.14.444 44.544 14.372 54.366 25.979 8.464 10.001 13.047 20.076 14.876 25.51-13.755-1.399-23.11 1.316-27.852 8.096-10.317 14.748 5.644 43.372 13.315 57.129 1.407 2.521 2.621 4.7 3.003 5.626 2.498 6.054 5.732 10.096 8.093 13.046.724.904 1.426 1.781 1.96 2.547-4.166 1.201-11.649 3.976-10.967 17.847-.55 6.96-4.461 39.546-6.448 51.059-2.623 15.21-8.22 20.875-23.957 24.25zm68.104-77.936c-4.26 1.977-11.389 3.46-18.161 3.779-7.48.35-11.288-.838-12.184-1.569-.42-8.644 2.797-9.547 6.202-10.503.535-.15 1.057-.297 1.561-.473.313.255.656.508 1.032.756 6.012 3.968 16.735 4.396 31.874 1.271l.166-.033c-2.042 1.909-5.536 4.471-10.49 6.772z" fill="#FFF"/></svg>

<?xml version="1.0" encoding="UTF-8" standalone="no"?>
<!DOCTYPE svg PUBLIC "-//W3C//DTD SVG 1.1//EN" "http://www.w3.org/Graphics/SVG/1.1/DTD/svg11.dtd">
<svg class="skill" width="100%" height="100%" viewBox="0 0 256 264" version="1.1" xmlns="http://www.w3.org/2000/svg" xmlns:xlink="http://www.w3.org/1999/xlink" xml:space="preserve" xmlns:serif="http://www.serif.com/" style="fill-rule:evenodd;clip-rule:evenodd;stroke-linejoin:round;stroke-miterlimit:2;">
    <path d="M255.008,158.086C253.473,153.437 249.452,150.199 244.252,149.422C241.8,149.056 238.992,149.212 235.669,149.897C229.877,151.092 225.58,151.547 222.444,151.635C234.281,131.65 243.906,108.86 249.447,87.407C258.407,52.718 253.619,36.915 248.024,29.767C233.217,10.847 211.614,0.683 185.552,0.372C171.649,0.202 159.444,2.947 153.077,4.921C147.149,3.875 140.775,3.291 134.087,3.183C121.55,2.983 110.473,5.716 101.008,11.333C95.768,9.561 87.358,7.063 77.646,5.469C54.804,1.719 36.394,4.641 22.928,14.154C6.622,25.672 -0.937,45.684 0.461,73.634C0.905,82.508 5.869,109.508 13.685,135.114C18.177,149.832 22.967,162.054 27.922,171.444C34.949,184.759 42.468,192.6 50.909,195.416C55.64,196.992 64.236,198.096 73.277,190.566C74.423,191.954 75.952,193.333 77.981,194.614C80.558,196.239 83.709,197.567 86.856,198.354C98.197,201.189 108.82,200.48 117.883,196.506C117.939,198.118 117.982,199.658 118.018,200.988C118.078,203.145 118.138,205.26 118.217,207.238C118.754,220.612 119.664,231.011 122.36,238.287C122.508,238.687 122.707,239.297 122.917,239.944C124.262,244.062 126.511,250.956 132.233,256.355C138.158,261.948 145.325,263.663 151.889,263.663C155.181,263.663 158.322,263.231 161.077,262.641C170.897,260.536 182.05,257.33 190.118,245.842C197.746,234.982 201.454,218.625 202.125,192.852C202.212,192.123 202.292,191.427 202.369,190.764L202.529,189.402L204.326,189.56L204.789,189.591C214.791,190.047 227.021,187.926 234.532,184.437C240.467,181.683 259.486,171.642 255.008,158.086" style="fill:rgb(198,198,198);fill-rule:nonzero;"/>
    <path d="M237.906,160.722C208.166,166.857 206.121,156.788 206.121,156.788C237.521,110.195 250.648,51.052 239.321,36.577C208.417,-2.908 154.922,15.766 154.029,16.25L153.742,16.302C147.866,15.082 141.291,14.356 133.9,14.235C120.444,14.015 110.236,17.763 102.49,23.637C102.49,23.637 7.06,-15.677 11.499,73.081C12.443,91.963 38.563,215.954 69.717,178.503C81.104,164.808 92.107,153.229 92.107,153.229C97.571,156.859 104.113,158.711 110.971,158.046L111.504,157.594C111.338,159.294 111.414,160.957 111.717,162.926C103.691,171.893 106.05,173.467 90.006,176.77C73.771,180.116 83.308,186.072 89.535,187.63C97.084,189.517 114.548,192.191 126.348,175.672L125.878,177.557C129.022,180.076 131.23,193.94 130.86,206.509C130.49,219.077 130.243,227.706 132.72,234.446C135.199,241.186 137.668,256.351 158.76,251.832C176.383,248.055 185.516,238.268 186.787,221.942C187.688,210.336 189.729,212.052 189.857,201.675L191.494,196.763C193.381,181.03 191.794,175.954 202.651,178.315L205.291,178.547C213.281,178.91 223.741,177.261 229.88,174.408C243.098,168.274 250.938,158.031 237.904,160.722L237.906,160.722" style="fill:rgb(51,103,145);fill-rule:nonzero;"/>
    <path d="M108.076,81.525C105.396,81.152 102.969,81.497 101.741,82.427C101.051,82.95 100.837,83.556 100.779,83.973C100.625,85.078 101.399,86.3 101.875,86.93C103.221,88.714 105.187,89.94 107.133,90.21C107.415,90.25 107.696,90.268 107.975,90.268C111.22,90.268 114.171,87.741 114.431,85.876C114.756,83.54 111.365,81.983 108.076,81.526M196.86,81.599C196.604,79.768 193.346,79.246 190.254,79.676C187.166,80.106 184.172,81.5 184.422,83.335C184.622,84.762 187.199,87.198 190.249,87.198C190.507,87.198 190.767,87.181 191.029,87.144C193.065,86.862 194.559,85.569 195.269,84.824C196.349,83.688 196.975,82.422 196.86,81.599" style="fill:white;fill-rule:nonzero;"/>
    <path d="M247.802,160.025C246.668,156.596 243.018,155.493 236.954,156.745C218.949,160.461 212.501,157.887 210.384,156.328C224.379,135.008 235.892,109.236 242.103,85.191C245.045,73.801 246.67,63.223 246.803,54.601C246.95,45.138 245.338,38.184 242.014,33.936C228.612,16.811 208.942,7.625 185.132,7.373C168.763,7.189 154.933,11.378 152.252,12.556C146.606,11.152 140.451,10.29 133.75,10.18C121.462,9.981 110.84,12.923 102.046,18.92C98.226,17.498 88.354,14.109 76.281,12.164C55.409,8.804 38.823,11.35 26.987,19.735C12.864,29.741 6.344,47.627 7.607,72.895C8.032,81.396 12.876,107.548 20.52,132.593C30.582,165.557 41.52,184.218 53.028,188.057C54.375,188.506 55.928,188.82 57.641,188.82C61.839,188.82 66.986,186.928 72.341,180.49C78.873,172.655 85.629,165.009 92.602,157.564C97.126,159.992 102.096,161.348 107.179,161.484C107.189,161.617 107.202,161.75 107.214,161.882C106.339,162.925 105.482,163.984 104.644,165.057C101.122,169.528 100.389,170.459 89.052,172.793C85.827,173.459 77.262,175.224 77.136,181.228C77,187.788 87.261,190.543 88.43,190.835C92.504,191.855 96.429,192.358 100.172,192.358C109.275,192.358 117.286,189.366 123.688,183.577C123.491,206.963 124.466,230.007 127.274,237.028C129.574,242.776 135.192,256.823 152.938,256.822C155.542,256.822 158.408,256.519 161.561,255.843C180.082,251.873 188.125,243.687 191.236,225.64C192.901,215.995 195.758,192.964 197.102,180.61C199.938,181.495 203.589,181.9 207.536,181.899C215.768,181.899 225.267,180.15 231.224,177.385C237.916,174.277 249.992,166.651 247.802,160.025ZM203.696,76.545C203.635,80.192 203.133,83.503 202.601,86.959C202.028,90.676 201.436,94.519 201.287,99.184C201.14,103.724 201.707,108.444 202.255,113.009C203.363,122.229 204.5,131.721 200.099,141.087C199.368,139.792 198.717,138.453 198.149,137.078C197.602,135.752 196.414,133.622 194.769,130.674C188.37,119.198 173.385,92.324 181.056,81.358C183.341,78.094 189.14,74.738 203.696,76.545ZM186.052,14.758C207.386,15.229 224.262,23.21 236.21,38.478C245.374,50.189 235.283,103.476 206.07,149.447C205.776,149.073 205.481,148.701 205.184,148.33L204.814,147.868C212.363,135.401 210.887,123.066 209.573,112.13C209.033,107.642 208.523,103.403 208.653,99.421C208.787,95.201 209.345,91.581 209.885,88.081C210.548,83.768 211.223,79.305 211.037,74.044C211.176,73.492 211.232,72.84 211.159,72.066C210.684,67.021 204.924,51.922 193.184,38.256C186.762,30.781 177.397,22.416 164.61,16.774C170.11,15.634 177.631,14.571 186.052,14.758ZM66.674,175.778C60.774,182.872 56.7,181.512 55.36,181.066C46.63,178.154 36.5,159.702 27.569,130.442C19.841,105.124 15.325,79.665 14.967,72.526C13.839,49.948 19.312,34.213 31.235,25.757C50.639,11.997 82.541,20.233 95.36,24.41C95.176,24.592 94.984,24.762 94.802,24.947C73.766,46.191 74.265,82.487 74.317,84.706C74.315,85.562 74.387,86.774 74.485,88.441C74.847,94.546 75.521,105.908 73.721,118.775C72.049,130.732 75.735,142.435 83.832,150.884C84.663,151.749 85.536,152.573 86.449,153.352C82.845,157.212 75.012,165.748 66.674,175.778ZM89.153,145.785C82.627,138.975 79.663,129.503 81.02,119.795C82.92,106.203 82.219,94.365 81.842,88.005C81.789,87.115 81.742,86.335 81.715,85.72C84.788,82.995 99.029,75.365 109.185,77.692C113.819,78.753 116.643,81.909 117.817,87.337C123.893,115.44 118.621,127.153 114.385,136.566C113.512,138.505 112.687,140.338 111.983,142.234L111.437,143.7C110.055,147.406 108.769,150.852 107.972,154.124C101.034,154.104 94.285,151.14 89.153,145.784L89.153,145.785ZM90.218,183.685C88.192,183.179 86.37,182.3 85.301,181.571C86.194,181.151 87.783,180.579 90.539,180.011C103.876,177.266 105.936,175.328 110.434,169.617C111.465,168.307 112.634,166.823 114.253,165.015L114.255,165.013C116.666,162.313 117.769,162.771 119.769,163.601C121.39,164.271 122.969,166.303 123.609,168.539C123.912,169.595 124.252,171.599 123.139,173.159C113.743,186.315 100.051,186.146 90.218,183.685ZM160.017,248.637C143.701,252.133 137.924,243.808 134.117,234.291C131.66,228.147 130.452,200.441 131.309,169.844C131.32,169.437 131.262,169.044 131.15,168.674C131.05,167.943 130.897,167.221 130.694,166.512C129.42,162.06 126.315,158.336 122.59,156.792C121.11,156.179 118.394,155.054 115.13,155.889C115.826,153.021 117.033,149.782 118.342,146.275L118.891,144.8C119.509,143.137 120.285,141.414 121.105,139.59C125.538,129.742 131.609,116.253 125.02,85.78C122.552,74.366 114.31,68.792 101.816,70.087C94.326,70.862 87.473,73.884 84.055,75.617C83.32,75.989 82.648,76.349 82.02,76.699C82.974,65.199 86.578,43.707 100.06,30.109C108.549,21.549 119.854,17.321 133.628,17.549C160.768,17.993 178.172,31.921 187.994,43.528C196.458,53.529 201.041,63.604 202.87,69.038C189.115,67.639 179.76,70.354 175.018,77.134C164.701,91.882 180.662,120.506 188.333,134.263C189.74,136.784 190.954,138.963 191.336,139.889C193.834,145.943 197.068,149.985 199.429,152.935C200.153,153.839 200.855,154.716 201.389,155.482C197.223,156.683 189.74,159.458 190.422,173.329C189.872,180.289 185.961,212.875 183.974,224.388C181.351,239.598 175.754,245.263 160.017,248.638L160.017,248.637ZM228.121,170.701C223.861,172.678 216.732,174.161 209.96,174.48C202.48,174.83 198.672,173.642 197.776,172.911C197.356,164.267 200.573,163.364 203.978,162.408C204.513,162.258 205.035,162.111 205.539,161.935C205.852,162.19 206.195,162.443 206.571,162.691C212.583,166.659 223.306,167.087 238.445,163.962L238.611,163.929C236.569,165.838 233.075,168.4 228.121,170.701Z" style="fill:white;fill-rule:nonzero;"/>
</svg>
